X: 2
T: Christmas Eve
R: reel
M: 4/4
L: 1/8
K: Gmaj
GE|D3E GEGA|B2dB ABGB |ABGE DB,DE|G2BG ABGE|DB,DE GEGA|B2dB ABGA|B2AB GEBG|ABGE G2:|GA|BABd edeg|abge g2eg|a2eg gage|dedB A2GA|BABd edeg|abge g2eg|a2ge d2BG|ABGE G2:|dB|BAG2 DGBd|egg2 egdB|BAG2 DGBG|EAA2 EAA2|BGG2 DGBd|egg2 egdg|b2ag egdB|ABGE G2:||


Tune 440	Setting 13303

